X:1
T:Title
%%score { ( 1 4 ) | ( 2 3 ) }
L:1/8
Q:1/4=100
M:4/4
K:Eb
V:1 treble nm="Grand Piano"
V:4 treble 
V:2 bass 
V:3 bass 
V:1
 G2 G2 A2 A2 | B4 G4 | [FA]2 [DF]2 [GB]3 [FA] | G6 z2 | G2 G2 A2 A2 | B4 [Ge]4 | d2 c2 B2 =A2 | %7
w: C.~C.~Case * * *|||||||
 [DB]6 z2 | c2 F2 G2 A2 | [GB]3 A G4 | A2 B2 c2 e2 | d8 | [Ge]2 [GB]2 d3 c | B4 G4 | %14
w: |||||||
 A2 G2 [DF]3 E | E8 |] %16
w: ||
V:2
 [E,B,E]2 [E,B,E]2 [F,B,D]2 [F,B,D]2 | [G,B,E]4 [E,B,E]4 | [B,,B,]2 [B,,B,]2 [B,,B,]3 [D,B,] | %3
 [E,B,E]6 z2 | [E,B,E]2 [E,B,E]2 [F,B,D]2 [F,B,D]2 | [G,B,E]4 [E,B,]4 | %6
 [F,B,F]2 [F,CE]2 [F,D]2 [F,CE]2 | [B,,B,]6 z2 | [A,CE]2 [A,B,D]2 [G,B,E]2 [F,B,F]2 | %9
 z2 z F [E,B,E]4 | [F,B,D]2[K:treble] [G,B,E]2 [A,E]2 [F,CF]2 | F2 z2 z4 | %12
 [E,B,]2 [E,E]2[K:treble] [A,EA]3 [A,EA] | [G,E]4 [E,B,E]4 | [F,B,D]2 [E,B,E]2 [B,,A,]3 [E,G,] | %15
 [E,G,]8 |] %16
V:3
 x8 | x8 | x8 | x8 | x8 | x8 | x8 | x8 | x8 | [E,B,]4 z4 | x2[K:treble] x6 | B,8 | %12
 x4[K:treble] x4 | x8 | x8 | x8 |] %16
V:4
 x8 | x8 | x8 | x8 | x8 | x8 | x8 | x8 | x8 | x8 | x8 | z2 G2 A4 | x8 | x8 | x8 | x8 |] %16

